X: 42
T: Miss Graham's Jigg
R: jig
B: William Shepherd "1st Collection" 1793 p.5 #2
F: http://imslp.org/wiki/File:PMLP73094-Shepherd_Collections_HMT.pdf
C: William Shepherd (17??-1812)
Z: 2012 John Chambers <jc:trillian.mit.edu>
M: 6/8
L: 1/8
K: G
c |\
(B/c/d)B  c2A | TB2G AFD | TEFG ABc | BGB AFD |\
(B/c/d)B Tc2A | TB2G AFD |  EFG AFD | G3 G,2 :|
|: D |\
DB,D DB,D | ECE ECc | AFD DEF | GAB cAF |\
DB,D DB,D | ECE EcA | AFD DEF | G3 G,2 :|
